src/images/svg-separate/stat.svg

<?xml version="1.0" encoding="UTF-8"?>
<svg fill="none" viewBox="0 0 20 20" xmlns="http://www.w3.org/2000/svg">
<rect width="20" height="20" fill="#E5E5E5"/>
<g clip-path="url(#c)">
<rect transform="translate(-785 -1238)" width="1646" height="2294" fill="#fff"/>
<g filter="url(#b)">
<path d="M-192 -826H508V342H-192V-826Z" fill="#fff"/>
</g>
<mask id="a" fill="white">
<path d="m0 6.9231c0-0.84967 0.68879-1.5385 1.5385-1.5385h3.0769c0.84967 0 1.5385 0.68879 1.5385 1.5385v10.769c0 0.8497-0.6888 1.5385-1.5385 1.5385h-3.0769c-0.84967 0-1.5385-0.6888-1.5385-1.5385v-10.769z"/>
<path d="m13.846 11.538c0-0.8497 0.6887-1.5385 1.5384-1.5385h3.0769c0.8497 0 1.5385 0.6888 1.5385 1.5385v6.1538c0 0.8497-0.6888 1.5385-1.5385 1.5385h-3.0769c-0.8497 0-1.5384-0.6888-1.5384-1.5385v-6.1538z"/>
<path d="m6.9231 1.5385c0-0.84967 0.68879-1.5385 1.5385-1.5385h3.077c0.8496 0 1.5384 0.68879 1.5384 1.5385v16.154c0 0.8497-0.6888 1.5385-1.5384 1.5385h-3.077c-0.84967 0-1.5385-0.6888-1.5385-1.5385v-16.154z"/>
</mask>
<path d="m1.5385 6.8846h3.0769v-3h-3.0769v3zm3.1154 0.03846v10.769h3v-10.769h-3zm-0.03847 10.808h-3.0769v3h3.0769v-3zm-3.1154-0.0385v-10.769h-3v10.769h3zm0.03846 0.0385c-0.00808 0-0.01199-0.0014-0.01451-0.0024-0.00352-0.0015-0.00811-0.0043-0.01268-0.0089s-0.00738-0.0092-0.00886-0.0127c-0.00107-0.0025-0.00241-0.0064-0.00241-0.0145h-3c0 1.6781 1.3604 3.0385 3.0385 3.0385v-3zm3.1154-0.0385c0 0.0081-0.00135 0.012-0.00241 0.0145-0.00149 0.0035-0.00429 0.0081-0.00886 0.0127s-0.00917 0.0074-0.01268 0.0089c-0.00252 1e-3 -0.00644 0.0024-0.01452 0.0024v3c1.6781 0 3.0385-1.3604 3.0385-3.0385h-3zm-0.03847-10.808c0.00808 0 0.012 0.00134 0.01452 0.0024 0.00351 0.00149 0.00811 0.00429 0.01268 0.00886s0.00737 0.00917 0.00886 0.01269c0.00106 0.00251 0.00241 0.00643 0.00241 0.01451h3c0-1.6781-1.3604-3.0385-3.0385-3.0385v3zm-3.0769-3c-1.6781 0-3.0385 1.3604-3.0385 3.0385h3c0-0.00808 0.00134-0.012 0.00241-0.01451 0.00148-0.00352 0.00429-0.00812 0.00886-0.01269s0.00916-0.00737 0.01268-0.00886c0.00252-0.00106 0.00643-0.0024 0.01451-0.0024v-3zm13.846 7.6154h3.0769v-3h-3.0769v3zm3.1154 0.0385v6.1538h3v-6.1538h-3zm-0.0385 6.1923h-3.0769v3h3.0769v-3zm-3.1153-0.0385v-6.1538h-3v6.1538h3zm0.0384 0.0385c-0.0081 0-0.012-0.0014-0.0145-0.0024-0.0035-0.0015-0.0081-0.0043-0.0127-0.0089s-0.0074-0.0092-0.0088-0.0127c-0.0011-0.0025-0.0024-0.0064-0.0024-0.0145h-3c0 1.6781 1.3603 3.0385 3.0384 3.0385v-3zm3.1154-0.0385c0 0.0081-0.0013 0.012-0.0024 0.0145-0.0015 0.0035-0.0043 0.0081-0.0089 0.0127-0.0045 0.0046-0.0091 0.0074-0.0127 0.0089-0.0025 1e-3 -0.0064 0.0024-0.0145 0.0024v3c1.6781 0 3.0385-1.3604 3.0385-3.0385h-3zm-0.0385-6.1923c0.0081 0 0.012 0.0013 0.0145 0.0024 0.0036 0.0015 0.0082 0.0043 0.0127 0.0089 0.0046 0.0045 0.0074 0.0091 0.0089 0.0127 0.0011 0.0025 0.0024 0.0064 0.0024 0.0145h3c0-1.6781-1.3604-3.0385-3.0385-3.0385v3zm-3.0769-3c-1.6781 0-3.0384 1.3604-3.0384 3.0385h3c0-0.0081 0.0013-0.012 0.0024-0.0145 0.0014-0.0036 0.0042-0.0082 0.0088-0.0127 0.0046-0.0046 0.0092-0.0074 0.0127-0.0089 0.0025-0.0011 0.0064-0.0024 0.0145-0.0024v-3zm-6.9231-7h3.077v-3h-3.077v3zm3.1154 0.03846v16.154h3v-16.154h-3zm-0.0384 16.192h-3.077v3h3.077v-3zm-3.1154-0.0385v-16.154h-3v16.154h3zm0.03846 0.0385c-0.00808 0-0.012-0.0014-0.01451-0.0024-0.00352-0.0015-0.00812-0.0043-0.01269-0.0089s-0.00737-0.0092-0.00886-0.0127c-0.00106-0.0025-0.0024-0.0064-0.0024-0.0145h-3c0 1.6781 1.3604 3.0385 3.0385 3.0385v-3zm3.1154-0.0385c0 0.0081-0.0013 0.012-0.0024 0.0145-0.0015 0.0035-0.0043 0.0081-0.0088 0.0127-0.0046 0.0046-0.0092 0.0074-0.0127 0.0089-0.0025 1e-3 -0.0065 0.0024-0.0145 0.0024v3c1.6781 0 3.0384-1.3604 3.0384-3.0385h-3zm-0.0384-16.192c8e-3 0 0.012 0.00134 0.0145 0.00241 0.0035 0.00148 0.0081 0.00429 0.0127 0.00886 0.0045 0.00457 0.0073 0.00916 0.0088 0.01268 0.0011 0.00252 0.0024 0.00643 0.0024 0.01451h3c0-1.6781-1.3603-3.0385-3.0384-3.0385v3zm-3.077-3c-1.6781 0-3.0385 1.3604-3.0385 3.0385h3c0-0.00808 0.00134-0.01199 0.0024-0.01451 0.00149-0.00352 0.00429-0.00811 0.00886-0.01268s0.00917-0.00738 0.01269-0.00886c0.00251-0.00107 0.00643-0.00241 0.01451-0.00241v-3z" fill="#BDC5CD" mask="url(#a)"/>
</g>
<defs>
<filter id="b" x="-197" y="-831" width="710" height="1178" color-interpolation-filters="sRGB" filterUnits="userSpaceOnUse">
<feFlood flood-opacity="0" result="BackgroundImageFix"/>
<feColorMatrix in="SourceAlpha" values="0 0 0 0 0 0 0 0 0 0 0 0 0 0 0 0 0 0 127 0"/>
<feOffset/>
<feGaussianBlur stdDeviation="2.5"/>
<feColorMatrix values="0 0 0 0 0 0 0 0 0 0 0 0 0 0 0 0 0 0 0.15 0"/>
<feBlend in2="BackgroundImageFix" result="effect1_dropShadow"/>
<feBlend in="SourceGraphic" in2="effect1_dropShadow" result="shape"/>
</filter>
<clipPath id="c">
<rect transform="translate(-785 -1238)" width="1646" height="2294" fill="#fff"/>
</clipPath>
</defs>
</svg>

<svg width="20" height="20" viewBox="0 0 20 20" fill="none" xmlns="http://www.w3.org/2000/svg">
<mask id="path-1-inside-1" fill="white">
<path d="M0 6.92308C0 6.07341 0.688793 5.38462 1.53846 5.38462H4.61538C5.46505 5.38462 6.15385 6.07341 6.15385 6.92308V17.6923C6.15385 18.542 5.46505 19.2308 4.61538 19.2308H1.53846C0.688793 19.2308 0 18.542 0 17.6923V6.92308Z"/>
<path d="M13.8462 11.5385C13.8462 10.6888 14.5349 10 15.3846 10H18.4615C19.3112 10 20 10.6888 20 11.5385V17.6923C20 18.542 19.3112 19.2308 18.4615 19.2308H15.3846C14.5349 19.2308 13.8462 18.542 13.8462 17.6923V11.5385Z"/>
<path d="M6.92308 1.53846C6.92308 0.688792 7.61187 0 8.46154 0H11.5385C12.3881 0 13.0769 0.688793 13.0769 1.53846V17.6923C13.0769 18.542 12.3881 19.2308 11.5385 19.2308H8.46154C7.61187 19.2308 6.92308 18.542 6.92308 17.6923V1.53846Z"/>
</mask>
<path d="M1.53846 6.88462H4.61538V3.88462H1.53846V6.88462ZM4.65385 6.92308V17.6923H7.65385V6.92308H4.65385ZM4.61538 17.7308H1.53846V20.7308H4.61538V17.7308ZM1.5 17.6923V6.92308H-1.5V17.6923H1.5ZM1.53846 17.7308C1.53038 17.7308 1.52647 17.7294 1.52395 17.7284C1.52043 17.7269 1.51584 17.7241 1.51127 17.7195C1.5067 17.7149 1.50389 17.7103 1.50241 17.7068C1.50134 17.7043 1.5 17.7004 1.5 17.6923H-1.5C-1.5 19.3704 -0.139634 20.7308 1.53846 20.7308V17.7308ZM4.65385 17.6923C4.65385 17.7004 4.6525 17.7043 4.65144 17.7068C4.64995 17.7103 4.64715 17.7149 4.64258 17.7195C4.63801 17.7241 4.63341 17.7269 4.6299 17.7284C4.62738 17.7294 4.62346 17.7308 4.61538 17.7308V20.7308C6.29348 20.7308 7.65385 19.3704 7.65385 17.6923H4.65385ZM4.61538 6.88462C4.62346 6.88462 4.62738 6.88596 4.6299 6.88702C4.63341 6.88851 4.63801 6.89131 4.64258 6.89588C4.64715 6.90045 4.64995 6.90505 4.65144 6.90857C4.6525 6.91108 4.65385 6.915 4.65385 6.92308H7.65385C7.65385 5.24498 6.29348 3.88462 4.61538 3.88462V6.88462ZM1.53846 3.88462C-0.139634 3.88462 -1.5 5.24498 -1.5 6.92308H1.5C1.5 6.915 1.50134 6.91108 1.50241 6.90857C1.50389 6.90505 1.5067 6.90045 1.51127 6.89588C1.51584 6.89131 1.52043 6.88851 1.52395 6.88702C1.52647 6.88596 1.53038 6.88462 1.53846 6.88462V3.88462ZM15.3846 11.5H18.4615V8.5H15.3846V11.5ZM18.5 11.5385V17.6923H21.5V11.5385H18.5ZM18.4615 17.7308H15.3846V20.7308H18.4615V17.7308ZM15.3462 17.6923V11.5385H12.3462V17.6923H15.3462ZM15.3846 17.7308C15.3765 17.7308 15.3726 17.7294 15.3701 17.7284C15.3666 17.7269 15.362 17.7241 15.3574 17.7195C15.3528 17.7149 15.35 17.7103 15.3486 17.7068C15.3475 17.7043 15.3462 17.7004 15.3462 17.6923H12.3462C12.3462 19.3704 13.7065 20.7308 15.3846 20.7308V17.7308ZM18.5 17.6923C18.5 17.7004 18.4987 17.7043 18.4976 17.7068C18.4961 17.7103 18.4933 17.7149 18.4887 17.7195C18.4842 17.7241 18.4796 17.7269 18.476 17.7284C18.4735 17.7294 18.4696 17.7308 18.4615 17.7308V20.7308C20.1396 20.7308 21.5 19.3704 21.5 17.6923H18.5ZM18.4615 11.5C18.4696 11.5 18.4735 11.5013 18.476 11.5024C18.4796 11.5039 18.4842 11.5067 18.4887 11.5113C18.4933 11.5158 18.4961 11.5204 18.4976 11.524C18.4987 11.5265 18.5 11.5304 18.5 11.5385H21.5C21.5 9.86037 20.1396 8.5 18.4615 8.5V11.5ZM15.3846 8.5C13.7065 8.5 12.3462 9.86037 12.3462 11.5385H15.3462C15.3462 11.5304 15.3475 11.5265 15.3486 11.524C15.35 11.5204 15.3528 11.5158 15.3574 11.5113C15.362 11.5067 15.3666 11.5039 15.3701 11.5024C15.3726 11.5013 15.3765 11.5 15.3846 11.5V8.5ZM8.46154 1.5H11.5385V-1.5H8.46154V1.5ZM11.5769 1.53846V17.6923H14.5769V1.53846H11.5769ZM11.5385 17.7308H8.46154V20.7308H11.5385V17.7308ZM8.42308 17.6923V1.53846H5.42308V17.6923H8.42308ZM8.46154 17.7308C8.45346 17.7308 8.44954 17.7294 8.44703 17.7284C8.44351 17.7269 8.43891 17.7241 8.43434 17.7195C8.42977 17.7149 8.42697 17.7103 8.42548 17.7068C8.42442 17.7043 8.42308 17.7004 8.42308 17.6923H5.42308C5.42308 19.3704 6.78344 20.7308 8.46154 20.7308V17.7308ZM11.5769 17.6923C11.5769 17.7004 11.5756 17.7043 11.5745 17.7068C11.573 17.7103 11.5702 17.7149 11.5657 17.7195C11.5611 17.7241 11.5565 17.7269 11.553 17.7284C11.5505 17.7294 11.5465 17.7308 11.5385 17.7308V20.7308C13.2166 20.7308 14.5769 19.3704 14.5769 17.6923H11.5769ZM11.5385 1.5C11.5465 1.5 11.5505 1.50134 11.553 1.50241C11.5565 1.50389 11.5611 1.5067 11.5657 1.51127C11.5702 1.51584 11.573 1.52043 11.5745 1.52395C11.5756 1.52647 11.5769 1.53038 11.5769 1.53846H14.5769C14.5769 -0.139635 13.2166 -1.5 11.5385 -1.5V1.5ZM8.46154 -1.5C6.78344 -1.5 5.42308 -0.139635 5.42308 1.53846H8.42308C8.42308 1.53038 8.42442 1.52647 8.42548 1.52395C8.42697 1.52043 8.42977 1.51584 8.43434 1.51127C8.43891 1.5067 8.44351 1.50389 8.44703 1.50241C8.44954 1.50134 8.45346 1.5 8.46154 1.5V-1.5Z" fill="#BDC5CD" mask="url(#path-1-inside-1)"/>
</svg>
